X: 64
T: Cotillon
%R: jig
B: Stewart "A Select Collection of Airs, Jigs, Marches and Reels", ca.1784, p.30 #64
F: http://imslp.org/wiki/A_Select_Collection_of_Airs,_Jigs,_Marches_and_Reels_%28Various%29
Z: 2017 John Chambers <jc:trillian.mit.edu>
M: 6/8
L: 1/8
K: D
d2d |\
dfe d2d | dcB AGF | EAG TFEF | D3 d2d |\
dfe d2d | df^g acd | cBA EA^G | A3 :|
|: a2a |\
aAB =cBA | B3 b2b | bBc dcB | c3 AAA |\
dAd fdf | a3 efg | fed Adc | d3 :|

%%sep 1 1 500
%%sep 1 1 500

